icons/1_Primary/LinkAce.svg

<svg xmlns="http://www.w3.org/2000/svg" width="1024" height="1024" fill="none">
   <g clip-path="url(#a)">
      <path fill="#728DBE" d="M512 1024c282.77 0 512-229.23 512-512S794.77 0 512 0 0 229.23 0 512s229.23 512 512 512Z"/>
      <path fill="#fff" d="m483.93 647-1.36-232.81a28.589 28.589 0 0 1 8.43-20.56 29.061 29.061 0 0 1 20.73-8.45 30.16 30.16 0 0 1 30 29.69l1.44 279.53c.29 42.32-27.12 73.73-62.44 73.54-17.12-.09-32.07-5.45-42.61-17-11.17-12.2-17.25-30.77-17.3-55.63-.05-24.86-2.22-348.16-2.22-348.16a89.85 89.85 0 0 1 26.57-64.62 91.005 91.005 0 0 1 65.07-26.46c51.34.47 92.71 41.54 93.19 92.59 0 3.15 2 303.7 2 303.7a13.625 13.625 0 1 0 27.25-.18l-2-303.74c-.61-65.9-53.93-119-120.18-119.61a118.303 118.303 0 0 0-84.55 34.39 117.08 117.08 0 0 0-34.61 84.16l2.22 348.07c.07 33.23 9.52 57.63 24.45 73.94 15.56 17 37.29 25.68 62.56 25.81 49.47.26 90.23-41.68 89.83-101l-1.44-279.56A57.391 57.391 0 0 0 512 357.93a56.115 56.115 0 0 0-40.166 16.34 56.119 56.119 0 0 0-16.524 40.09l1.36 232.76a13.624 13.624 0 0 0 26.243 5.06 13.635 13.635 0 0 0 1.007-5.22l.01.04Z"/>
   </g>
   <defs>
      <clipPath id="a">
         <path fill="#fff" d="M0 0h1024v1024H0z"/>
      </clipPath>
   </defs>
</svg>

<svg width="1024" height="1024" viewBox="0 0 1024 1024" fill="none" xmlns="http://www.w3.org/2000/svg">
<g clip-path="url(#clip0_2_2682)">
<path d="M512 1024C794.77 1024 1024 794.77 1024 512C1024 229.23 794.77 0 512 0C229.23 0 0 229.23 0 512C0 794.77 229.23 1024 512 1024Z" fill="#728DBE"/>
<path d="M483.93 647L482.57 414.19C482.532 410.374 483.258 406.589 484.706 403.058C486.154 399.527 488.294 396.321 491 393.63C493.724 390.921 496.96 388.779 500.518 387.328C504.076 385.878 507.887 385.147 511.73 385.18C519.62 385.221 527.18 388.352 532.789 393.903C538.397 399.453 541.607 406.98 541.73 414.87L543.17 694.4C543.46 736.72 516.05 768.13 480.73 767.94C463.61 767.85 448.66 762.49 438.12 750.94C426.95 738.74 420.87 720.17 420.82 695.31C420.77 670.45 418.6 347.15 418.6 347.15C418.489 335.15 420.783 323.25 425.346 312.152C429.91 301.053 436.65 290.981 445.17 282.53C453.722 274.028 463.878 267.311 475.049 262.768C486.219 258.226 498.181 255.949 510.24 256.07C561.58 256.54 602.95 297.61 603.43 348.66C603.43 351.81 605.43 652.36 605.43 652.36C605.454 655.974 606.912 659.43 609.484 661.968C610.758 663.225 612.266 664.219 613.924 664.892C615.581 665.566 617.355 665.907 619.145 665.895C620.934 665.883 622.703 665.519 624.352 664.823C626 664.128 627.496 663.114 628.753 661.841C630.01 660.567 631.003 659.059 631.677 657.401C632.351 655.743 632.691 653.969 632.68 652.18L630.68 348.44C630.07 282.54 576.75 229.44 510.5 228.83C494.831 228.678 479.289 231.639 464.775 237.543C450.26 243.447 437.063 252.174 425.95 263.22C414.856 274.228 406.078 287.346 400.134 301.8C394.19 316.254 391.199 331.752 391.34 347.38L393.56 695.45C393.63 728.68 403.08 753.08 418.01 769.39C433.57 786.39 455.3 795.07 480.57 795.2C530.04 795.46 570.8 753.52 570.4 694.2L568.96 414.64C568.782 399.612 562.716 385.253 552.065 374.648C541.414 364.044 527.029 358.042 512 357.93C504.556 357.853 497.17 359.258 490.275 362.063C483.379 364.869 477.11 369.018 471.834 374.27C466.558 379.522 462.38 385.772 459.543 392.654C456.706 399.537 455.267 406.916 455.31 414.36L456.67 647.12C456.68 648.909 457.043 650.679 457.737 652.328C458.432 653.977 459.444 655.473 460.717 656.731C461.99 657.989 463.497 658.983 465.155 659.659C466.812 660.334 468.585 660.676 470.375 660.665C472.164 660.655 473.934 660.292 475.583 659.597C477.232 658.903 478.728 657.89 479.986 656.618C481.243 655.345 482.238 653.837 482.913 652.18C483.588 650.523 483.93 648.749 483.92 646.96L483.93 647Z" fill="white"/>
</g>
<defs>
<clipPath id="clip0_2_2682">
<rect width="1024" height="1024" fill="white"/>
</clipPath>
</defs>
</svg>
